X:1
T:Merry, Merry Christmas!
T:Merry, Merry Christmas!
T:Mrs. Thomas J. Cook
T:Mrs. Thomas J. Cook, 1870
T:Public Domain Courtesy of the Cyber Hymnal™
C:Mrs. Thomas J. Cook
Z:Public Domain
Z:Courtesy of the Cyber Hymnal™
%%score ( 1 2 ) ( 3 4 )
L:1/8
Q:1/4=78
M:2/4
K:G
V:1 treble 
V:2 treble 
V:3 bass 
V:4 bass 
V:1
 [Bd]/[Ac]/[GB]/[Ac]/ [Bd][GB] | [DG][FA] [GB]2 | [DB]/[CA]/[B,G]/[CA]/ [DB][CG] | D[CF] [B,G]2 | %4
w: 1.~Mer- ry, mer- ry Christ- mas|ev- ery- where!|Cheer- i- ly it ring- eth|through the air;|
w: 2.~Mer- ry, mer- ry Christ- mas|ev- ery- where!|Cheer- i- ly it ring- eth|through the air;|
w: 3.~Mer- ry, mer- ry Christ- mas|ev- ery- where!|Cheer- i- ly it ring- eth|through the air;|
 [DA][Fd] [Fd]2 [GB][Gd] [Gd]2 | [FA][Fe] [Gd][GB] | [FA][EG] [FA]2 | %7
w: Christ- mas bells, Christ- mas trees,|Christ- mas o- dors|on the breeze.|
w: Christ- mas bells, Christ- mas trees,|Christ- mas o- dors|on the breeze.|
w: Christ- mas bells, Christ- mas trees,|Christ- mas o- dors|on the breeze.|
 [Bd]/[Ac]/[GB]/[Ac]/ [Bd][GB] | [DG][FA] [GB]2 | [DB]/[CA]/[B,G]/[CA]/ [DB][B,G] | D[CF] [B,G]2 | %11
w: Mer- ry, mer- ry Christ- mas|ev- ery- where!|Cheer- i- ly it ring- eth|through the air;|
w: Mer- ry, mer- ry Christ- mas|ev- ery- where!|Cheer- i- ly it ring- eth|through the air;|
w: Mer- ry, mer- ry Christ- mas|ev- ery- where!|Cheer- i- ly it ring- eth|through the air;|
 [FA]>[GB] [Ac]>[FA] | [GB]>[Ac] [Bd]2 | [ce][Bd] [Ac][GB] | [FA]3 z | [B,G]>[CA] [DB]>[B,G] | %16
w: Why should we so|joy- ful- ly|Sing, with grate- ful|mirth?|See! the Sun of|
w: Light of wea- ry|wan- der- ers,|Com- fort for th’op-|pressed!|He will guide His|
w: Deeds of faith and|char- i- ty,|These our off- erings|be;|Lead- ing ev- ery|
 [CE]>[DF] [EG]2 | [B,D][Dc] [DB][CA] | [B,G]3 z |] %19
w: Right- eous- ness|Beams up- on the|earth!|
w: trust- ing ones|In- to per- fect|rest.|
w: soul to sing,|Christ was born for|me!|
V:2
 x4 | x4 | x4 | D x3 | x8 | x4 | x4 | x4 | x4 | x4 | D x3 | x4 | x4 | x4 | x4 | x4 | x4 | x4 | %18
 x4 |] %19
V:3
 [G,D]/[G,D]/[G,D]/[G,D]/ [G,D][G,D] | [G,B,][D,D] [G,D]2 | %2
 [G,,G,]/[G,,G,]/[G,,G,]/[G,,G,]/ [G,,G,][G,,G,] | [D,B,][D,A,] [G,,G,]2 | %4
 [D,F,][D,A,] [E,A,]2 G,[G,B,] [G,B,]2 | [D,C][D,C] [G,B,][G,D] | [D,D][D,D] [D,D]2 | %7
 [G,D]/[G,D]/[G,D]/[G,D]/ [G,D][G,D] | [G,B,][D,D] [G,D]2 | %9
 [G,,G,]/[G,,G,]/[G,,G,]/[G,,G,]/ [G,,G,][G,,G,] | [D,F,][D,A,] G,2 | [D,D]>[D,D] [D,D]>[D,D] | %12
 [G,D]>[G,D] [G,D]2 | [F,D][F,D] [F,D][G,D] | [D,D]3 z | [G,,G,]>[G,,G,] [G,,G,]>[G,,G,] | %16
 [C,G,]>[C,G,] [C,G,]2 | [D,G,][D,A,] [D,G,][D,F,] | [G,,G,]3 z |] %19
V:4
 x4 | x4 | x4 | x4 | x4 G, x3 | x4 | x4 | x4 | x4 | x4 | x2 G,2 | x4 | x4 | x4 | x4 | x4 | x4 | %17
 x4 | x4 |] %19

